svgs/dankchat.svg

<svg width="192" height="192" viewBox="0 0 192 192" fill="none" xmlns="http://www.w3.org/2000/svg">
<path d="M142.801 171.85H158.406M142.801 171.85C135.518 168.729 137.079 152.083 146.052 160.926M142.801 171.85L146.052 160.926M158.406 171.85C174.5 174.159 178.693 150.003 163.812 153.124M158.406 171.85L163.812 153.124M163.812 153.124L171.28 127.251C171.97 124.859 169.615 122.715 167.298 123.628L155.805 128.155L146.052 160.926" stroke="black" stroke-width="6" stroke-miterlimit="2.36797" stroke-linecap="round" stroke-linejoin="round"/>
<path d="M41.3674 89.6627C76.735 90.0472 96.4361 89.1188 131.357 85.5013C115.604 51.5987 107.811 28.3232 85.582 21C61.5601 35.1213 54.9954 56.0105 41.3674 89.6627Z" stroke="black" stroke-width="10" stroke-miterlimit="2.36797" stroke-linecap="round" stroke-linejoin="round"/>
<path d="M132.397 82.9004C136.524 86.3289 137.895 89.096 140.72 95.3845C144.646 97.0468 147.073 105.384 143.841 110.99C146.442 112.55 146.962 120.353 139.68 122.433C139.944 133.733 135 138 121.5 138C121.672 143.301 118.855 143.577 114.712 148.442C95.4653 163.527 37.7262 161.967 27.8429 148.442C16.9193 135.438 26.2824 101.627 41.8876 87.582" stroke="black" stroke-width="10" stroke-miterlimit="2.36797" stroke-linecap="round" stroke-linejoin="round"/>
<path d="M134.663 129.762C142.404 127.956 141.769 126.121 138.648 123C122.686 123.731 113.805 123.979 97.0342 126.641C80.2637 129.303 77.2676 120.919 70.5054 124.04C63.7432 127.161 65.3037 137.565 70.5054 138.605C75.7071 139.645 78.203 138.712 90.2719 138.605C102.341 138.498 108.967 137.695 120.442 134.444C125.942 134.483 130.88 134.019 134.663 129.762Z" stroke="black" stroke-width="6" stroke-miterlimit="2.36797" stroke-linecap="round" stroke-linejoin="round"/>
<path d="M98.0661 104.693C98.7695 101.819 98.0476 99.4584 95.9854 97.9854C87.0917 93.2627 80.5948 92.7002 66.3356 95.3846L52.291 99.5459C57.8831 105.036 65.7102 108.906 73.0978 111.19M98.0661 104.693C100.566 104.713 102.227 106.036 104.828 104.693C119.959 96.875 127.762 95.1734 140.2 97.9854M98.0661 104.693C97.5988 106.601 96.5027 108.737 94.7527 110.99M94.7527 110.99C94.4853 111.334 94.2027 111.681 93.9047 112.03C93.4076 112.613 92.5123 113.041 91.3039 113.314M94.7527 110.99C96.4999 114.006 97.8691 115.37 102.227 116.191C108.565 116.257 113.837 116.237 118.353 116.086M142.281 112.03C140.576 112.703 138.869 113.278 137.079 113.766M73.0978 111.19C74.1382 106.308 76.739 102.667 84.5416 102.667C90.5951 102.667 91.6329 107.387 91.3039 113.314M73.0978 111.19C80.5083 113.481 87.4767 114.177 91.3039 113.314M118.353 116.086C121.474 104.693 127.196 103.707 129.797 103.707C134.478 103.707 136.261 107.881 137.079 113.766M118.353 116.086C126.421 115.817 132.076 115.13 137.079 113.766" stroke="black" stroke-width="6" stroke-miterlimit="2.36797" stroke-linecap="round" stroke-linejoin="round"/>
<path d="M114.191 147.922C124.821 151.609 128.756 156.245 128.756 172.89H115.232M115.232 172.89H19V153.124L25.7622 145.841M115.232 172.89L108.99 159.366" stroke="black" stroke-width="6" stroke-miterlimit="2.36797" stroke-linecap="round" stroke-linejoin="round"/>
<path d="M163 133L162 134" stroke="black" stroke-width="6" stroke-miterlimit="2.36797" stroke-linecap="round" stroke-linejoin="round"/>
<path d="M154 160L153 161" stroke="black" stroke-width="6" stroke-miterlimit="2.36797" stroke-linecap="round" stroke-linejoin="round"/>
<path d="M157 151L156 152" stroke="black" stroke-width="6" stroke-miterlimit="2.36797" stroke-linecap="round" stroke-linejoin="round"/>
<path d="M160 142L159 143" stroke="black" stroke-width="6" stroke-miterlimit="2.36797" stroke-linecap="round" stroke-linejoin="round"/>
</svg>

<svg width="192" height="192" viewBox="0 0 192 192" fill="none" xmlns="http://www.w3.org/2000/svg"><path d="M142.801 171.85h15.605m-15.605 0c-7.283-3.121-5.722-19.767 3.251-10.924m-3.251 10.924 3.251-10.924m12.354 10.924c16.094 2.309 20.287-21.847 5.406-18.726m-5.406 18.726 5.406-18.726m0 0 7.468-25.873c.69-2.392-1.665-4.536-3.982-3.623l-11.493 4.527-9.753 32.771" stroke="#000" stroke-width="6" stroke-miterlimit="2.368" stroke-linecap="round" stroke-linejoin="round"/><path d="M41.367 89.663c35.368.384 55.07-.544 89.99-4.162C115.604 51.6 107.811 28.323 85.582 21 61.56 35.121 54.995 56.01 41.367 89.663Z" stroke="#000" stroke-width="10" stroke-miterlimit="2.368" stroke-linecap="round" stroke-linejoin="round"/><path d="M132.397 82.9c4.127 3.429 5.498 6.196 8.323 12.484 3.926 1.663 6.353 10 3.121 15.606 2.601 1.56 3.121 9.363-4.161 11.443.264 11.3-4.68 15.567-18.18 15.567.172 5.301-2.645 5.577-6.788 10.442-19.247 15.085-76.986 13.525-86.87 0-10.923-13.004-1.56-46.815 14.046-60.86" stroke="#000" stroke-width="10" stroke-miterlimit="2.368" stroke-linecap="round" stroke-linejoin="round"/><path d="M134.663 129.762c7.741-1.806 7.106-3.641 3.985-6.762-15.962.731-24.843.979-41.614 3.641-16.77 2.662-19.766-5.722-26.529-2.601-6.762 3.121-5.201 13.525 0 14.565 5.202 1.04 7.698.107 19.767 0 12.069-.107 18.695-.91 30.17-4.161 5.5.039 10.438-.425 14.221-4.682ZM98.066 104.693c.703-2.874-.018-5.235-2.08-6.708-8.894-4.722-15.391-5.285-29.65-2.6l-14.045 4.16c5.592 5.491 13.42 9.361 20.807 11.645m24.968-6.497c2.5.02 4.161 1.343 6.762 0 15.131-7.818 22.934-9.52 35.372-6.708m-42.134 6.708c-.467 1.908-1.563 4.044-3.313 6.297m0 0a29.2 29.2 0 0 1-.848 1.04c-.497.583-1.393 1.011-2.601 1.284m3.449-2.324c1.747 3.016 3.116 4.38 7.474 5.201 6.338.066 11.61.046 16.126-.105m23.928-4.056a49.569 49.569 0 0 1-5.202 1.736m-63.981-2.576c1.04-4.882 3.641-8.523 11.444-8.523 6.053 0 7.09 4.72 6.762 10.647m-18.206-2.124c7.41 2.291 14.379 2.987 18.206 2.124m27.049 2.772c3.121-11.393 8.843-12.379 11.444-12.379 4.681 0 6.464 4.174 7.282 10.059m-18.726 2.32c8.068-.269 13.723-.956 18.726-2.32M114.191 147.922c10.63 3.687 14.565 8.323 14.565 24.968h-13.524m0 0H19v-19.766l6.762-7.283m89.47 27.049-6.242-13.524M163 133l-1 1M154 160l-1 1M157 151l-1 1M160 142l-1 1" stroke="#000" stroke-width="6" stroke-miterlimit="2.368" stroke-linecap="round" stroke-linejoin="round"/></svg>
